images/3234655.svg

<?xml version="1.0" encoding="UTF-8"?>
<svg xmlns="http://www.w3.org/2000/svg" xmlns:xlink="http://www.w3.org/1999/xlink" width="300pt" height="300pt" viewBox="0 0 300 300" version="1.1">
<defs>
<g>
<symbol overflow="visible" id="glyph0-0">
<path style="stroke:none;" d="M 0.59375 2.125 L 0.59375 -8.46875 L 6.59375 -8.46875 L 6.59375 2.125 Z M 1.265625 1.453125 L 5.9375 1.453125 L 5.9375 -7.78125 L 1.265625 -7.78125 Z M 1.265625 1.453125 "/>
</symbol>
<symbol overflow="visible" id="glyph0-1">
<path style="stroke:none;" d="M 1.171875 -8.75 L 2.765625 -8.75 L 6.65625 -1.4375 L 6.65625 -8.75 L 7.796875 -8.75 L 7.796875 0 L 6.203125 0 L 2.328125 -7.3125 L 2.328125 0 L 1.171875 0 Z M 1.171875 -8.75 "/>
</symbol>
<symbol overflow="visible" id="glyph0-2">
<path style="stroke:none;" d="M 4.734375 -7.953125 C 3.867188 -7.953125 3.179688 -7.628906 2.671875 -6.984375 C 2.171875 -6.347656 1.921875 -5.472656 1.921875 -4.359375 C 1.921875 -3.265625 2.171875 -2.394531 2.671875 -1.75 C 3.179688 -1.113281 3.867188 -0.796875 4.734375 -0.796875 C 5.585938 -0.796875 6.265625 -1.113281 6.765625 -1.75 C 7.273438 -2.394531 7.53125 -3.265625 7.53125 -4.359375 C 7.53125 -5.472656 7.273438 -6.347656 6.765625 -6.984375 C 6.265625 -7.628906 5.585938 -7.953125 4.734375 -7.953125 Z M 4.734375 -8.90625 C 5.953125 -8.90625 6.925781 -8.492188 7.65625 -7.671875 C 8.394531 -6.847656 8.765625 -5.742188 8.765625 -4.359375 C 8.765625 -2.984375 8.394531 -1.882812 7.65625 -1.0625 C 6.925781 -0.238281 5.953125 0.171875 4.734375 0.171875 C 3.503906 0.171875 2.519531 -0.238281 1.78125 -1.0625 C 1.039062 -1.882812 0.671875 -2.984375 0.671875 -4.359375 C 0.671875 -5.742188 1.039062 -6.847656 1.78125 -7.671875 C 2.519531 -8.492188 3.503906 -8.90625 4.734375 -8.90625 Z M 4.734375 -8.90625 "/>
</symbol>
<symbol overflow="visible" id="glyph0-3">
<path style="stroke:none;" d="M 1.171875 -8.75 L 2.359375 -8.75 L 2.359375 -5.15625 L 6.65625 -5.15625 L 6.65625 -8.75 L 7.84375 -8.75 L 7.84375 0 L 6.65625 0 L 6.65625 -4.171875 L 2.359375 -4.171875 L 2.359375 0 L 1.171875 0 Z M 1.171875 -8.75 "/>
</symbol>
</g>
</defs>
<g id="surface55713">
<rect x="0" y="0" width="300" height="300" style="fill:rgb(100%,100%,100%);fill-opacity:1;stroke:none;"/>
<path style="fill:none;stroke-width:1.2;stroke-linecap:butt;stroke-linejoin:miter;stroke:rgb(0%,0%,0%);stroke-opacity:1;stroke-miterlimit:10;" d="M 40.109375 222.605469 L 63.988281 206.011719 "/>
<path style="fill:none;stroke-width:1.2;stroke-linecap:butt;stroke-linejoin:miter;stroke:rgb(0%,0%,0%);stroke-opacity:1;stroke-miterlimit:10;" d="M 63.988281 206.011719 L 77.144531 212.203125 "/>
<path style="fill:none;stroke-width:1.2;stroke-linecap:butt;stroke-linejoin:miter;stroke:rgb(0%,0%,100%);stroke-opacity:1;stroke-miterlimit:10;" d="M 77.144531 212.203125 L 90.300781 218.394531 "/>
<path style="fill:none;stroke-width:1.2;stroke-linecap:butt;stroke-linejoin:miter;stroke:rgb(0%,0%,0%);stroke-opacity:1;stroke-miterlimit:10;" d="M 69.535156 201.058594 L 80.058594 206.011719 "/>
<path style="fill:none;stroke-width:1.2;stroke-linecap:butt;stroke-linejoin:miter;stroke:rgb(0%,0%,100%);stroke-opacity:1;stroke-miterlimit:10;" d="M 80.058594 206.011719 L 90.582031 210.964844 "/>
<path style="fill:none;stroke-width:1.2;stroke-linecap:butt;stroke-linejoin:miter;stroke:rgb(0%,0%,0%);stroke-opacity:1;stroke-miterlimit:10;" d="M 61.558594 177.035156 L 63.988281 206.011719 "/>
<path style="fill:none;stroke-width:1.2;stroke-linecap:butt;stroke-linejoin:miter;stroke:rgb(0%,0%,100%);stroke-opacity:1;stroke-miterlimit:10;" d="M 90.300781 218.394531 L 102.238281 210.097656 "/>
<path style="fill:none;stroke-width:1.2;stroke-linecap:butt;stroke-linejoin:miter;stroke:rgb(0%,0%,0%);stroke-opacity:1;stroke-miterlimit:10;" d="M 102.238281 210.097656 L 114.179688 201.800781 "/>
<path style=" stroke:none;fill-rule:nonzero;fill:rgb(100%,100%,100%);fill-opacity:1;" d="M 86.300781 211.394531 L 95.300781 211.394531 L 95.300781 225.394531 L 86.300781 225.394531 Z M 86.300781 211.394531 "/>
<g style="fill:rgb(0%,0%,100%);fill-opacity:1;">
  <use xlink:href="#glyph0-1" x="86.300781" y="222.533203"/>
</g>
<path style="fill:none;stroke-width:1.2;stroke-linecap:butt;stroke-linejoin:miter;stroke:rgb(0%,0%,0%);stroke-opacity:1;stroke-miterlimit:10;" d="M 114.179688 201.800781 L 140.488281 214.1875 "/>
<path style="fill:none;stroke-width:1.2;stroke-linecap:butt;stroke-linejoin:miter;stroke:rgb(0%,0%,0%);stroke-opacity:1;stroke-miterlimit:10;" d="M 119.726562 196.851562 L 140.773438 206.757812 "/>
<path style="fill:none;stroke-width:1.2;stroke-linecap:butt;stroke-linejoin:miter;stroke:rgb(0%,0%,0%);stroke-opacity:1;stroke-miterlimit:10;" d="M 111.75 172.824219 L 114.179688 201.800781 "/>
<path style="fill:none;stroke-width:1.2;stroke-linecap:butt;stroke-linejoin:miter;stroke:rgb(0%,0%,0%);stroke-opacity:1;stroke-miterlimit:10;" d="M 140.488281 214.1875 L 152.429688 205.890625 "/>
<path style="fill:none;stroke-width:1.2;stroke-linecap:butt;stroke-linejoin:miter;stroke:rgb(0%,0%,100%);stroke-opacity:1;stroke-miterlimit:10;" d="M 152.429688 205.890625 L 164.371094 197.59375 "/>
<path style="fill:none;stroke-width:1.2;stroke-linecap:butt;stroke-linejoin:miter;stroke:rgb(0%,0%,100%);stroke-opacity:1;stroke-miterlimit:10;" d="M 164.371094 197.59375 L 163.15625 183.105469 "/>
<path style="fill:none;stroke-width:1.2;stroke-linecap:butt;stroke-linejoin:miter;stroke:rgb(0%,0%,0%);stroke-opacity:1;stroke-miterlimit:10;" d="M 163.15625 183.105469 L 161.941406 168.617188 "/>
<path style="fill:none;stroke-width:1.2;stroke-linecap:butt;stroke-linejoin:miter;stroke:rgb(0%,0%,100%);stroke-opacity:1;stroke-miterlimit:10;" d="M 157.308594 195.265625 L 156.335938 183.675781 "/>
<path style="fill:none;stroke-width:1.2;stroke-linecap:butt;stroke-linejoin:miter;stroke:rgb(0%,0%,0%);stroke-opacity:1;stroke-miterlimit:10;" d="M 156.335938 183.675781 L 155.363281 172.085938 "/>
<path style=" stroke:none;fill-rule:nonzero;fill:rgb(100%,100%,100%);fill-opacity:1;" d="M 160.371094 190.59375 L 169.371094 190.59375 L 169.371094 204.59375 L 160.371094 204.59375 Z M 160.371094 190.59375 "/>
<g style="fill:rgb(0%,0%,100%);fill-opacity:1;">
  <use xlink:href="#glyph0-1" x="160.371094" y="201.732422"/>
</g>
<path style="fill:none;stroke-width:1.2;stroke-linecap:butt;stroke-linejoin:miter;stroke:rgb(0%,0%,0%);stroke-opacity:1;stroke-miterlimit:10;" d="M 161.941406 168.617188 L 148.785156 162.425781 "/>
<path style="fill:none;stroke-width:1.2;stroke-linecap:butt;stroke-linejoin:miter;stroke:rgb(0%,0%,100%);stroke-opacity:1;stroke-miterlimit:10;" d="M 148.785156 162.425781 L 135.628906 156.230469 "/>
<path style="fill:none;stroke-width:1.2;stroke-linecap:butt;stroke-linejoin:miter;stroke:rgb(0%,0%,0%);stroke-opacity:1;stroke-miterlimit:10;" d="M 161.941406 168.617188 L 173.878906 160.320312 "/>
<path style="fill:none;stroke-width:1.2;stroke-linecap:butt;stroke-linejoin:miter;stroke:rgb(0%,0%,100%);stroke-opacity:1;stroke-miterlimit:10;" d="M 173.878906 160.320312 L 185.820312 152.023438 "/>
<path style="fill:none;stroke-width:1.2;stroke-linecap:butt;stroke-linejoin:miter;stroke:rgb(0%,0%,100%);stroke-opacity:1;stroke-miterlimit:10;" d="M 135.628906 156.230469 L 123.691406 164.527344 "/>
<path style="fill:none;stroke-width:1.2;stroke-linecap:butt;stroke-linejoin:miter;stroke:rgb(0%,0%,0%);stroke-opacity:1;stroke-miterlimit:10;" d="M 123.691406 164.527344 L 111.75 172.824219 "/>
<path style="fill:none;stroke-width:1.2;stroke-linecap:butt;stroke-linejoin:miter;stroke:rgb(0%,0%,100%);stroke-opacity:1;stroke-miterlimit:10;" d="M 137.144531 163.511719 L 127.59375 170.148438 "/>
<path style="fill:none;stroke-width:1.2;stroke-linecap:butt;stroke-linejoin:miter;stroke:rgb(0%,0%,0%);stroke-opacity:1;stroke-miterlimit:10;" d="M 127.59375 170.148438 L 118.042969 176.785156 "/>
<path style=" stroke:none;fill-rule:nonzero;fill:rgb(100%,100%,100%);fill-opacity:1;" d="M 131.628906 149.230469 L 140.628906 149.230469 L 140.628906 163.230469 L 131.628906 163.230469 Z M 131.628906 149.230469 "/>
<g style="fill:rgb(0%,0%,100%);fill-opacity:1;">
  <use xlink:href="#glyph0-1" x="131.628906" y="160.369141"/>
</g>
<path style="fill:none;stroke-width:1.2;stroke-linecap:butt;stroke-linejoin:miter;stroke:rgb(0%,0%,0%);stroke-opacity:1;stroke-miterlimit:10;" d="M 111.75 172.824219 L 98.59375 166.632812 "/>
<path style="fill:none;stroke-width:1.2;stroke-linecap:butt;stroke-linejoin:miter;stroke:rgb(0%,0%,100%);stroke-opacity:1;stroke-miterlimit:10;" d="M 98.59375 166.632812 L 85.441406 160.441406 "/>
<path style="fill:none;stroke-width:1.2;stroke-linecap:butt;stroke-linejoin:miter;stroke:rgb(0%,0%,100%);stroke-opacity:1;stroke-miterlimit:10;" d="M 85.441406 160.441406 L 73.5 168.738281 "/>
<path style="fill:none;stroke-width:1.2;stroke-linecap:butt;stroke-linejoin:miter;stroke:rgb(0%,0%,0%);stroke-opacity:1;stroke-miterlimit:10;" d="M 73.5 168.738281 L 61.558594 177.035156 "/>
<path style="fill:none;stroke-width:1.2;stroke-linecap:butt;stroke-linejoin:miter;stroke:rgb(0%,0%,100%);stroke-opacity:1;stroke-miterlimit:10;" d="M 85.441406 160.441406 L 84.226562 145.953125 "/>
<path style="fill:none;stroke-width:1.2;stroke-linecap:butt;stroke-linejoin:miter;stroke:rgb(0%,0%,0%);stroke-opacity:1;stroke-miterlimit:10;" d="M 84.226562 145.953125 L 83.011719 131.464844 "/>
<path style=" stroke:none;fill-rule:nonzero;fill:rgb(100%,100%,100%);fill-opacity:1;" d="M 81.441406 153.441406 L 90.441406 153.441406 L 90.441406 167.441406 L 81.441406 167.441406 Z M 81.441406 153.441406 "/>
<g style="fill:rgb(0%,0%,100%);fill-opacity:1;">
  <use xlink:href="#glyph0-1" x="81.441406" y="164.580078"/>
</g>
<path style="fill:none;stroke-width:1.2;stroke-linecap:butt;stroke-linejoin:miter;stroke:rgb(0%,0%,0%);stroke-opacity:1;stroke-miterlimit:10;" d="M 63.015625 173.9375 L 49.863281 167.746094 "/>
<path style="fill:none;stroke-width:1.2;stroke-linecap:butt;stroke-linejoin:miter;stroke:rgb(100%,0%,0%);stroke-opacity:1;stroke-miterlimit:10;" d="M 49.863281 167.746094 L 36.707031 161.554688 "/>
<path style="fill:none;stroke-width:1.2;stroke-linecap:butt;stroke-linejoin:miter;stroke:rgb(0%,0%,0%);stroke-opacity:1;stroke-miterlimit:10;" d="M 60.101562 180.128906 L 46.949219 173.9375 "/>
<path style="fill:none;stroke-width:1.2;stroke-linecap:butt;stroke-linejoin:miter;stroke:rgb(100%,0%,0%);stroke-opacity:1;stroke-miterlimit:10;" d="M 46.949219 173.9375 L 33.792969 167.746094 "/>
<path style=" stroke:none;fill-rule:nonzero;fill:rgb(100%,100%,100%);fill-opacity:1;" d="M 25.25 157.648438 L 35.25 157.648438 L 35.25 171.648438 L 25.25 171.648438 Z M 25.25 157.648438 "/>
<g style="fill:rgb(100%,0%,0%);fill-opacity:1;">
  <use xlink:href="#glyph0-2" x="25.25" y="168.787109"/>
</g>
<path style=" stroke:none;fill-rule:nonzero;fill:rgb(0%,0%,0%);fill-opacity:1;" d="M 106.890625 114.871094 L 80.082031 127.25 L 85.9375 135.675781 Z M 106.890625 114.871094 "/>
<path style="fill:none;stroke-width:1.2;stroke-linecap:butt;stroke-linejoin:miter;stroke:rgb(0%,0%,0%);stroke-opacity:1;stroke-miterlimit:10;" d="M 106.890625 114.871094 L 107.503906 85.796875 "/>
<path style="fill:none;stroke-width:1.2;stroke-linecap:butt;stroke-linejoin:miter;stroke:rgb(100%,0%,0%);stroke-opacity:1;stroke-miterlimit:10;" d="M 134.351562 124.4375 L 120.621094 119.652344 "/>
<path style="fill:none;stroke-width:1.2;stroke-linecap:butt;stroke-linejoin:miter;stroke:rgb(0%,0%,0%);stroke-opacity:1;stroke-miterlimit:10;" d="M 120.621094 119.652344 L 106.890625 114.871094 "/>
<path style="fill:none;stroke-width:1.2;stroke-linecap:butt;stroke-linejoin:miter;stroke:rgb(0%,0%,0%);stroke-opacity:1;stroke-miterlimit:10;" d="M 107.503906 85.796875 L 135.339844 77.394531 "/>
<path style="fill:none;stroke-width:1.2;stroke-linecap:butt;stroke-linejoin:miter;stroke:rgb(0%,0%,0%);stroke-opacity:1;stroke-miterlimit:10;" d="M 135.339844 77.394531 L 151.933594 101.277344 "/>
<path style="fill:none;stroke-width:1.2;stroke-linecap:butt;stroke-linejoin:miter;stroke:rgb(0%,0%,0%);stroke-opacity:1;stroke-miterlimit:10;" d="M 151.933594 101.277344 L 143.140625 112.855469 "/>
<path style="fill:none;stroke-width:1.2;stroke-linecap:butt;stroke-linejoin:miter;stroke:rgb(100%,0%,0%);stroke-opacity:1;stroke-miterlimit:10;" d="M 143.140625 112.855469 L 134.351562 124.4375 "/>
<path style=" stroke:none;fill-rule:nonzero;fill:rgb(100%,100%,100%);fill-opacity:1;" d="M 129.351562 117.4375 L 139.351562 117.4375 L 139.351562 131.4375 L 129.351562 131.4375 Z M 129.351562 117.4375 "/>
<g style="fill:rgb(100%,0%,0%);fill-opacity:1;">
  <use xlink:href="#glyph0-2" x="129.351562" y="128.576172"/>
</g>
<path style="fill:none;stroke-width:1.2;stroke-linecap:butt;stroke-linejoin:miter;stroke:rgb(0%,0%,100%);stroke-opacity:1;stroke-miterlimit:10;" d="M 185.820312 152.023438 L 198.976562 158.214844 "/>
<path style="fill:none;stroke-width:1.2;stroke-linecap:butt;stroke-linejoin:miter;stroke:rgb(0%,0%,0%);stroke-opacity:1;stroke-miterlimit:10;" d="M 198.976562 158.214844 L 212.128906 164.40625 "/>
<path style=" stroke:none;fill-rule:nonzero;fill:rgb(100%,100%,100%);fill-opacity:1;" d="M 176.820312 145.023438 L 194.820312 145.023438 L 194.820312 159.023438 L 176.820312 159.023438 Z M 176.820312 145.023438 "/>
<g style="fill:rgb(0%,0%,100%);fill-opacity:1;">
  <use xlink:href="#glyph0-1" x="176.820312" y="156.162109"/>
  <use xlink:href="#glyph0-3" x="185.796875" y="156.162109"/>
</g>
<path style="fill:none;stroke-width:1.2;stroke-linecap:butt;stroke-linejoin:miter;stroke:rgb(0%,0%,0%);stroke-opacity:1;stroke-miterlimit:10;" d="M 212.128906 164.40625 L 214.558594 193.382812 "/>
<path style="fill:none;stroke-width:1.2;stroke-linecap:butt;stroke-linejoin:miter;stroke:rgb(0%,0%,0%);stroke-opacity:1;stroke-miterlimit:10;" d="M 219.191406 166.734375 L 221.136719 189.914062 "/>
<path style="fill:none;stroke-width:1.2;stroke-linecap:butt;stroke-linejoin:miter;stroke:rgb(0%,0%,0%);stroke-opacity:1;stroke-miterlimit:10;" d="M 236.011719 147.816406 L 212.128906 164.40625 "/>
<path style="fill:none;stroke-width:1.2;stroke-linecap:butt;stroke-linejoin:miter;stroke:rgb(0%,0%,0%);stroke-opacity:1;stroke-miterlimit:10;" d="M 214.558594 193.382812 L 240.871094 205.769531 "/>
<path style="fill:none;stroke-width:1.2;stroke-linecap:butt;stroke-linejoin:miter;stroke:rgb(0%,0%,0%);stroke-opacity:1;stroke-miterlimit:10;" d="M 240.871094 205.769531 L 264.75 189.175781 "/>
<path style="fill:none;stroke-width:1.2;stroke-linecap:butt;stroke-linejoin:miter;stroke:rgb(0%,0%,0%);stroke-opacity:1;stroke-miterlimit:10;" d="M 239.355469 198.492188 L 258.457031 185.214844 "/>
<path style="fill:none;stroke-width:1.2;stroke-linecap:butt;stroke-linejoin:miter;stroke:rgb(0%,0%,0%);stroke-opacity:1;stroke-miterlimit:10;" d="M 264.75 189.175781 L 262.320312 160.199219 "/>
<path style="fill:none;stroke-width:1.2;stroke-linecap:butt;stroke-linejoin:miter;stroke:rgb(0%,0%,0%);stroke-opacity:1;stroke-miterlimit:10;" d="M 262.320312 160.199219 L 236.011719 147.816406 "/>
<path style="fill:none;stroke-width:1.2;stroke-linecap:butt;stroke-linejoin:miter;stroke:rgb(0%,0%,0%);stroke-opacity:1;stroke-miterlimit:10;" d="M 256.773438 165.152344 L 235.726562 155.242188 "/>
</g>
</svg>

<svg xmlns="http://www.w3.org/2000/svg" xmlns:xlink="http://www.w3.org/1999/xlink" width="300pt" height="300pt" viewBox="0 0 300 300"><defs><symbol overflow="visible"><path d="M.594 2.125V-8.47h6V2.126zm.672-.672h4.671V-7.78h-4.67zm0 0"/></symbol><symbol overflow="visible" id="a"><path d="M1.172-8.75h1.594l3.89 7.313V-8.75h1.14V0H6.204L2.328-7.313V0H1.172zm0 0"/></symbol><symbol overflow="visible" id="b"><path d="M4.734-7.953c-.867 0-1.554.324-2.062.97-.5.635-.75 1.51-.75 2.624 0 1.094.25 1.965.75 2.61.508.637 1.195.953 2.062.953.852 0 1.532-.316 2.032-.953.507-.645.765-1.516.765-2.61 0-1.113-.257-1.988-.764-2.624-.5-.645-1.18-.97-2.032-.97zm0-.953c1.22 0 2.192.414 2.922 1.234.74.824 1.11 1.93 1.11 3.313 0 1.376-.37 2.477-1.11 3.298C6.926-.24 5.953.17 4.734.17c-1.23 0-2.214-.41-2.953-1.234C1.04-1.882.673-2.984.673-4.36c0-1.382.367-2.488 1.11-3.312.738-.82 1.722-1.234 2.952-1.234zm0 0"/></symbol><symbol overflow="visible" id="c"><path d="M1.172-8.75H2.36v3.594h4.296V-8.75h1.188V0H6.656v-4.172H2.36V0H1.17zm0 0"/></symbol></defs><g><path fill="#fff" d="M0 0h300v300H0z"/><path d="M40.11 222.605l23.878-16.593M63.988 206.012l13.157 6.19" stroke-width="1.2" stroke="#000" stroke-miterlimit="10" fill="none"/><path d="M77.145 212.203l13.156 6.192" stroke-width="1.2" stroke="#00f" stroke-miterlimit="10" fill="none"/><path d="M69.535 201.06l10.524 4.952" stroke-width="1.2" stroke="#000" stroke-miterlimit="10" fill="none"/><path d="M80.06 206.012l10.522 4.953" stroke-width="1.2" stroke="#00f" stroke-miterlimit="10" fill="none"/><path d="M61.56 177.035l2.428 28.977" stroke-width="1.2" stroke="#000" stroke-miterlimit="10" fill="none"/><path d="M90.3 218.395l11.938-8.297" stroke-width="1.2" stroke="#00f" stroke-miterlimit="10" fill="none"/><path d="M102.238 210.098l11.942-8.297" stroke-width="1.2" stroke="#000" stroke-miterlimit="10" fill="none"/><path d="M86.3 211.395h9v14h-9zm0 0" fill="#fff"/><use xlink:href="#a" x="86.301" y="222.533" fill="#00f"/><path d="M114.18 201.8l26.308 12.387M119.727 196.852l21.046 9.906M111.75 172.824l2.43 28.977M140.488 214.188l11.942-8.297" stroke-width="1.2" stroke="#000" stroke-miterlimit="10" fill="none"/><path d="M152.43 205.89l11.94-8.296M164.37 197.594l-1.214-14.49" stroke-width="1.2" stroke="#00f" stroke-miterlimit="10" fill="none"/><path d="M163.156 183.105l-1.215-14.488" stroke-width="1.2" stroke="#000" stroke-miterlimit="10" fill="none"/><path d="M157.31 195.266l-.974-11.59" stroke-width="1.2" stroke="#00f" stroke-miterlimit="10" fill="none"/><path d="M156.336 183.676l-.973-11.59" stroke-width="1.2" stroke="#000" stroke-miterlimit="10" fill="none"/><path d="M160.37 190.594h9v14h-9zm0 0" fill="#fff"/><use xlink:href="#a" x="160.371" y="201.732" fill="#00f"/><path d="M161.94 168.617l-13.155-6.19" stroke-width="1.2" stroke="#000" stroke-miterlimit="10" fill="none"/><path d="M148.785 162.426l-13.156-6.196" stroke-width="1.2" stroke="#00f" stroke-miterlimit="10" fill="none"/><path d="M161.94 168.617l11.94-8.297" stroke-width="1.2" stroke="#000" stroke-miterlimit="10" fill="none"/><path d="M173.88 160.32l11.94-8.297M135.63 156.23l-11.94 8.297" stroke-width="1.2" stroke="#00f" stroke-miterlimit="10" fill="none"/><path d="M123.69 164.527l-11.94 8.297" stroke-width="1.2" stroke="#000" stroke-miterlimit="10" fill="none"/><path d="M137.145 163.512l-9.55 6.636" stroke-width="1.2" stroke="#00f" stroke-miterlimit="10" fill="none"/><path d="M127.594 170.148l-9.55 6.637" stroke-width="1.2" stroke="#000" stroke-miterlimit="10" fill="none"/><path d="M131.63 149.23h9v14h-9zm0 0" fill="#fff"/><use xlink:href="#a" x="131.629" y="160.369" fill="#00f"/><path d="M111.75 172.824l-13.156-6.19" stroke-width="1.2" stroke="#000" stroke-miterlimit="10" fill="none"/><path d="M98.594 166.633L85.44 160.44M85.44 160.44L73.5 168.74" stroke-width="1.2" stroke="#00f" stroke-miterlimit="10" fill="none"/><path d="M73.5 168.738l-11.94 8.297" stroke-width="1.2" stroke="#000" stroke-miterlimit="10" fill="none"/><path d="M85.44 160.44l-1.213-14.487" stroke-width="1.2" stroke="#00f" stroke-miterlimit="10" fill="none"/><path d="M84.227 145.953l-1.215-14.488" stroke-width="1.2" stroke="#000" stroke-miterlimit="10" fill="none"/><path d="M81.44 153.44h9v14h-9zm0 0" fill="#fff"/><use xlink:href="#a" x="81.441" y="164.58" fill="#00f"/><path d="M63.016 173.938l-13.153-6.192" stroke-width="1.2" stroke="#000" stroke-miterlimit="10" fill="none"/><path d="M49.863 167.746l-13.156-6.19" stroke-width="1.2" stroke="#f00" stroke-miterlimit="10" fill="none"/><path d="M60.102 180.13l-13.153-6.192" stroke-width="1.2" stroke="#000" stroke-miterlimit="10" fill="none"/><path d="M46.95 173.938l-13.157-6.192" stroke-width="1.2" stroke="#f00" stroke-miterlimit="10" fill="none"/><path d="M25.25 157.648h10v14h-10zm0 0" fill="#fff"/><use xlink:href="#b" x="25.25" y="168.787" fill="#f00"/><path d="M106.89 114.87l-26.808 12.38 5.856 8.426zm0 0"/><path d="M106.89 114.87l.614-29.073" stroke-width="1.2" stroke="#000" stroke-miterlimit="10" fill="none"/><path d="M134.352 124.438l-13.73-4.786" stroke-width="1.2" stroke="#f00" stroke-miterlimit="10" fill="none"/><path d="M120.62 119.652l-13.73-4.78M107.504 85.797l27.836-8.402M135.34 77.395l16.594 23.882M151.934 101.277l-8.793 11.578" stroke-width="1.2" stroke="#000" stroke-miterlimit="10" fill="none"/><path d="M143.14 112.855l-8.788 11.582" stroke-width="1.2" stroke="#f00" stroke-miterlimit="10" fill="none"/><path d="M129.352 117.438h10v14h-10zm0 0" fill="#fff"/><use xlink:href="#b" x="129.352" y="128.576" fill="#f00"/><path d="M185.82 152.023l13.157 6.192" stroke-width="1.2" stroke="#00f" stroke-miterlimit="10" fill="none"/><path d="M198.977 158.215l13.152 6.19" stroke-width="1.2" stroke="#000" stroke-miterlimit="10" fill="none"/><path d="M176.82 145.023h18v14h-18zm0 0" fill="#fff"/><g fill="#00f"><use xlink:href="#a" x="176.82" y="156.162"/><use xlink:href="#c" x="185.797" y="156.162"/></g><path d="M212.13 164.406l2.43 28.977M219.19 166.734l1.947 23.18M236.012 147.816l-23.883 16.59M214.56 193.383l26.31 12.387M240.87 205.77l23.88-16.594M239.355 198.492l19.102-13.277M264.75 189.176l-2.43-28.977M262.32 160.2l-26.308-12.384M256.773 165.152l-21.046-9.91" stroke-width="1.2" stroke="#000" stroke-miterlimit="10" fill="none"/></g></svg>
